!!!OTL: 273. Der Tegernsee.
!!!ARE: Europa, Mitteleuropa, Deutschland; France, Elsass
!!!SCT: B0273
!!!TXL: @@DE
!!!YEM: Copyright 1995, estate of Helmut Schaffrath.
**kern	**text
*ICvox	*
*Ivox	*
*clefG2	*
*M3/4	*
*k[b-e-]	*
*B-:	*
!LO:TX:a:t=Langſam.	!
{8d	Und
8e-	von
=1	=1
4f	Ber-
4b-	-gen
8a	rings
8g	um-
=2	=2
4f	-ge-
8d	-ben,
8d	da
8e-	liegt
8c	der
=3	=3
4B-	See,
4r}	.
{8d	und
8e-	ein
=4	=4
4f	frei-
4b-	-es
8cc	froh-
8dd	-es
=5	=5
4ee-	Le-
4f	-ben
8.dd	herrſchet
16cc	.
=6	=6
4b-	dort.
4r}	.
=||	=||
{8.f	Singt
16d	der
=7	=7
4e-	Landmann
4cc	.
8.f	fro-
16e-	-he
=8	=8
8dL	Lie-
8fJ	.
4b-}	-der,
{8f	ſei-
8d	-ne
=9	=9
4e-	ſchö-
4cc	-nen
8f	Al-
8e-	-pen-
=10	=10
8dL	-lie-
8fJ	.
4b-}	-der;
{8d	auf
8e-	des
=11	=11
8f	Berges
8f	.
8b-	Spi-
8b-	-tʒe
8a	wann
8g	ich
=12	=12
4f	ſteh,
4b-}	ſeh
{8a	ich
8g	hin-
=13	=13
8.f	-un-
16f	-ter
8dd	auf
8b-	den
8cc	Te-
8a	-gern-
=14	=14
2b-}	-ſee.
==	==
!!!AGN: Stimmungs - Lied, Sehnsucht, Abschied
!!!GTL: Trauerlieder (Elegien) und Stimmungslieder
!!!ONB: ESAC (Essen Associative Code) Database: BOEHME
!!!AMT: simple triple
!!!AIN: vox
!!!EED: Helmut Schaffrath
!!!EEV: 1.0
!!@@COMMENT:"Aus dem Elſaß (Kr. Weißenburg) 1889 aufgeſcht. von H. Lorentʒ.
!!Tegernſee. Dorf am gleichnamigen See in Oberbayern (6 Meilen ſüdöſtlich von München),
!!ehemals Benedektiner-Abtei, jetʒt ſchönes Schloß mit Parkanlagen."
!!@@END:
!!!URL-scan: https://archive.org/details/BoehmeVtLieder1895/page/n233/mode/2up
!!!ENC: Anna Maria Matuszewska
!!!EEV: 2024/03/07
*-	*-
